fs/box_search_24_regular.svg

<svg viewBox="0 0 24 24" fill="none" xmlns="http://www.w3.org/2000/svg" height="1em" width="1em">
  <path d="M10.5911 2.51301C11.4947 2.14671 12.5053 2.14671 13.4089 2.51301L20.9075 5.55298C21.5679 5.82071 22 6.46216 22 7.17477V16.501C22 15.0394 21.4299 13.711 20.5 12.726V7.77292L12.7503 10.7651V12.4773C12.062 13.119 11.5385 13.9353 11.2503 14.8556V10.7638L3.5 7.74979V16.8275C3.5 16.9293 3.56173 17.0209 3.65607 17.0592L11.1547 20.0991C11.1788 20.1089 11.203 20.1183 11.2274 20.1272L11.439 20.2132C11.7699 20.3478 12.1369 20.3594 12.474 20.2482C12.8682 20.6715 13.3284 21.0327 13.8383 21.3152L13.4089 21.4892C12.5053 21.8555 11.4947 21.8555 10.5911 21.4892L3.09252 18.4493C2.43211 18.1815 2 17.5401 2 16.8275V7.17477C2 6.46216 2.43211 5.82071 3.09252 5.55298L10.5911 2.51301ZM12.8453 3.90312C12.3032 3.68334 11.6968 3.68334 11.1547 3.90312L9.24097 4.67894L16.7678 7.60604L19.437 6.57542L12.8453 3.90312ZM14.6911 8.40787L7.21472 5.50039L4.59029 6.56435L12.0013 9.44642L14.6911 8.40787ZM22 16.5632V16.501C22 16.5218 22.0002 16.5425 22 16.5632ZM20.1681 19.1084C20.6919 18.3728 21 17.4728 21 16.501C21 14.0157 18.9853 12.001 16.5 12.001C14.0147 12.001 12 14.0157 12 16.501C12 18.9863 14.0147 21.001 16.5 21.001C17.4719 21.001 18.3718 20.6929 19.1074 20.169L21.7197 22.7813C22.0126 23.0742 22.4874 23.0742 22.7803 22.7813C23.0732 22.4884 23.0732 22.0135 22.7803 21.7206L20.1681 19.1084ZM19.5 16.501C19.5 18.1578 18.1569 19.501 16.5 19.501C14.8431 19.501 13.5 18.1578 13.5 16.501C13.5 14.8441 14.8431 13.501 16.5 13.501C18.1569 13.501 19.5 14.8441 19.5 16.501Z" fill="#212121"/>
</svg>

<svg viewBox="0 0 24 24" fill="none" xmlns="http://www.w3.org/2000/svg" height="1em" width="1em">
  <path d="M10.591 2.513a3.75 3.75 0 0 1 2.818 0l7.498 3.04A1.75 1.75 0 0 1 22 7.175V16.5a5.48 5.48 0 0 0-1.5-3.775V7.773l-7.75 2.992v1.712a5.502 5.502 0 0 0-1.5 2.379v-4.092L3.5 7.75v9.078a.25.25 0 0 0 .156.231l7.499 3.04c.024.01.048.02.072.028l.212.086a1.5 1.5 0 0 0 1.035.035c.394.424.854.785 1.364 1.067l-.43.174a3.75 3.75 0 0 1-2.817 0l-7.498-3.04A1.75 1.75 0 0 1 2 16.827V7.176a1.75 1.75 0 0 1 1.093-1.622l7.498-3.04Zm2.254 1.39a2.25 2.25 0 0 0-1.69 0L9.24 4.68l7.527 2.927 2.669-1.03-6.592-2.673Zm1.846 4.505L7.215 5.5 4.59 6.564l7.411 2.882 2.69-1.038ZM22 16.563v-.062.062Zm-1.832 2.545a4.5 4.5 0 1 0-1.06 1.06l2.612 2.613a.75.75 0 1 0 1.06-1.06l-2.612-2.613Zm-.668-2.607a3 3 0 1 1-6 0 3 3 0 0 1 6 0Z" fill="#212121"/>
</svg>
